X:1
T:Jesus, Savior, Friend of Sinners
T:Jesus, Savior, Friend of Sinners
T:Charles Hutchinson Gabriel
T:Robert Henry Coleman, 1911
T:Public Domain Courtesy of the Cyber Hymnal™
C:Charles Hutchinson Gabriel
Z:Public Domain
Z:Courtesy of the Cyber Hymnal™
%%score ( 1 2 ) ( 3 4 )
L:1/8
Q:1/4=106
M:4/4
K:Ab
V:1 treble 
V:2 treble 
V:3 bass 
V:4 bass 
V:1
 [Ec]3 [Ec] [DB]2 A2 | [FA]3 [FB] [FA]2 [DF]2 | [CE]2 [DF]2 [CA]2 [Ec]2 | [Ec]2 [EB]2 [EB]4 | %4
w: 1.~Je- sus, Sav- ior,|friend of sin- ners,|Waits to wel- come,|waits to bless;|
w: 2.~Je- sus, Sav- ior,|friend of sin- ners,|Comes to cheer my|heart to- day;|
w: 3.~Je- sus, Sav- ior,|friend of sin- ners,|Comes to com- fort,|comes to cheer;|
w: 4.~Je- sus, Sav- ior,|friend of sin- ners,|He has been a|friend to me;|
 [Ec]3 [Ec] [DB]2 A2 | [FA]3 [FB] [FA]2 [DF]2 | [CE]2 [CA]2 [Ec]3 [Fd] | [Ec]2 [DB]2 [CA]4 || %8
w: And I must not|keep Him wait- ing,|For I long for|hap- pi- ness.|
w: He has shoul- dered|ev- ery bur- den,|And will help me|all the way.|
w: And I’ll not go|mourn- ing long- er,|For He saves me|now and here.|
w: And to think with|Him in glo- ry|I shall reign e-|ter- nal- ly!|
"^Refrain" [Ae]3 [Ae] ([Ec][DB]) [CA]2 | [Ec]3 [CA] [DF]2 [CE]2 | [Ae]3 [Ae] (cB) [EA]2 | %11
w: |||
w: He my soul * with|blood hath ran- somed,|And will keep * me|
w: |||
w: |||
 [Ed]2 [Ec]2 [EB]4 | [Ec]3 [Ec] [DB]2 A2 | [FA]3 [FB] [FA]2 [DF]2 | [CE]2 [CA]2 [Ec]3 [Fd] | %15
w: ||||
w: to the end;|He’s en- ti- tled|to my best love,|For He is the|
w: ||||
w: ||||
 [Ec]2 [DB]2 [CA]4 |] %16
w: |
w: sin- ner’s friend.|
w: |
w: |
V:2
 x6 (CE) | x8 | x8 | x8 | x6 (CE) | x8 | x8 | x8 || x8 | x8 | x4 E2 x2 | x8 | x6 (CE) | x8 | x8 | %15
 x8 |] %16
V:3
 [A,,A,]3 [A,,A,] [A,,A,]2 A,2 | [D,D]3 [D,D] [D,D]2 [D,A,]2 | %2
 [A,,A,]2 [A,,A,]2 [A,,A,]2 [A,,A,]2 | [E,A,]2 [E,G,]2 [E,G,]4 | [A,,A,]3 [A,,A,] [A,,A,]2 A,2 | %5
 [D,D]3 [D,D] [D,D]2 [D,A,]2 | [A,,A,]2 [A,,A,]2 A,3 [D,A,] | [E,A,]2 [E,G,]2 [A,,A,]4 || %8
 [A,C]3 [A,C] A,2 A,2 | [A,,A,]3 [A,,A,] [A,,A,]2 [A,,A,]2 | [A,C]3 [A,C] (A,D) [A,C]2 | %11
 [G,B,]2 A,2 [E,G,]4 | [A,,A,]3 [A,,A,] [A,,A,]2 A,2 | [D,D]3 [D,D] [D,D]2 [D,A,]2 | %14
 [A,,A,]2 [A,,A,]2 A,3 [D,A,] | [E,A,]2 [E,G,]2 [A,,A,]4 |] %16
V:4
 x6 (A,,C,) | x8 | x8 | x8 | x6 (A,,C,) | x8 | x4 A,3 x | x8 || x4 A,2 A,2 | x8 | x4 A,2 x2 | %11
 x2 A,2 x4 | x6 (A,,C,) | x8 | x4 A,3 x | x8 |] %16

